img/svg/logo.svg

<svg width="83" height="62" viewBox="0 0 83 62" fill="none" xmlns="http://www.w3.org/2000/svg">
<path fill-rule="evenodd" clip-rule="evenodd" d="M18.3386 8.79466C18.4751 7.7609 18.5847 6.6395 18.7266 5.61985C18.7761 5.26432 18.8124 4.92141 18.856 4.56605L18.9534 3.77627C18.9713 3.64806 18.954 3.54186 19.0149 3.54186H20.8837L21.0291 4.72757C21.078 5.12688 21.1177 5.51332 21.1736 5.91419C21.2293 6.31449 21.2641 6.69846 21.3197 7.09891C21.3755 7.4997 21.4153 7.88615 21.4643 8.28562L21.9015 11.8414C21.9253 12.0218 21.9331 11.986 21.7441 11.9855H20.7492L20.5707 10.1337C20.5614 10.0615 20.5474 9.96191 20.5474 9.87459H19.324C19.3101 10.0415 19.2799 10.231 19.2707 10.3993C19.2541 10.6965 19.2019 11.139 19.1749 11.4599C19.1608 11.6274 19.1362 11.8182 19.1224 11.9855H17.9527L18.0141 11.4418C18.1326 10.585 18.2242 9.65997 18.3385 8.79491L18.3386 8.79466ZM19.5852 7.27173C19.5597 7.45188 19.5582 7.61868 19.5353 7.79999L19.4316 8.86598H20.44L20.1344 5.36664C20.1249 5.29574 20.1183 5.16769 20.1173 5.10132C20.115 4.92908 20.0771 4.73969 20.0771 4.56358H19.8215C19.7663 4.56358 19.78 4.61387 19.7809 4.67093L19.7534 5.08722C19.7139 5.60377 19.6573 6.22173 19.6331 6.72814L19.5852 7.27181V7.27173ZM27.9152 7.75002C27.9152 8.45118 27.933 9.14829 27.9416 9.84804C27.9428 9.93362 27.9559 9.99884 27.9557 10.103C27.9555 10.301 27.9596 10.6707 28.0317 10.8203C28.1689 11.1058 28.4788 11.1248 28.7893 11.1248H34.8126C34.9838 11.1248 35.1524 11.1146 35.2815 11.0694C35.3799 11.0347 35.4517 10.983 35.5139 10.8984C35.6513 10.7112 35.6293 10.3498 35.6323 10.1158C35.6332 10.0324 35.6465 9.97526 35.6462 9.87443C35.6447 9.21507 35.6731 8.49487 35.6731 7.83074C35.6731 7.64391 35.6598 7.50655 35.6598 7.31988L35.6462 5.7737C35.6464 5.59783 35.6326 5.45025 35.6328 5.26284C35.6331 4.75041 35.5751 4.40239 34.9471 4.40239H28.628C28.2907 4.40239 28.0692 4.53192 27.9983 4.79452C27.9735 4.88637 27.9551 5.16917 27.9556 5.26267C27.9565 5.44184 27.9421 5.58019 27.9424 5.7469C27.943 6.39826 27.9153 7.09199 27.9153 7.7501L27.9152 7.75002ZM58.1281 7.01275L57.9512 8.86598H58.9595L58.9063 8.32775C58.8806 7.86446 58.7944 7.32623 58.7713 6.84926C58.7685 6.78997 58.7595 6.79344 58.7578 6.72838C58.7557 6.64898 58.7508 6.53158 58.7387 6.45168L58.6156 4.82693C58.6058 4.76064 58.5966 4.62591 58.5966 4.56366H58.3141C58.3022 4.61478 58.2883 4.77317 58.287 4.83228L58.2327 5.65192C58.1995 6.07596 58.1717 6.59729 58.128 7.01284L58.1281 7.01275ZM62.2266 4.56358V7.93825H62.5897C63.2493 7.93825 63.4382 7.73271 63.4367 7.11813C63.4365 7.00913 63.4505 6.94251 63.4506 6.84975V5.63881C63.4505 5.54795 63.4364 5.48941 63.4367 5.38379C63.4393 4.4888 62.9851 4.56358 62.2266 4.56358ZM22.4702 8.86598H23.5188C23.5813 8.86598 23.5454 8.94612 23.5455 9.02701C23.5455 9.09338 23.5503 9.17739 23.545 9.2417C23.5145 9.61215 23.5409 10.0276 23.5452 10.3991C23.5508 10.8679 23.7556 11.1306 24.2432 11.1191C24.8126 11.1055 24.8515 10.8061 24.9018 10.3564C24.9105 10.2783 24.8968 10.1973 24.9074 10.12C24.9328 9.93486 24.9032 9.70375 24.9038 9.52476L24.8883 9.16362C24.8674 8.96863 24.811 8.70545 24.7179 8.58112C24.3997 8.15625 23.2004 8.36312 22.7093 7.57803C22.3453 6.99593 22.4164 6.07818 22.4164 5.35683C22.4164 4.77449 22.5227 4.24631 22.7958 3.93465C22.8686 3.85163 22.9325 3.78385 23.039 3.72069C23.3058 3.5628 23.6727 3.48027 24.0453 3.46106H24.3898C24.654 3.47466 24.9061 3.51919 25.1107 3.59026C25.3299 3.66644 25.5018 3.79152 25.634 3.95428C26.1341 4.57009 25.9928 5.75473 25.9928 6.59366H24.8903C24.8903 6.30525 24.9038 6.0626 24.9038 5.77353C24.9038 5.43573 24.9441 4.84292 24.7774 4.62261C24.5877 4.37164 24.1211 4.35251 23.8591 4.47346C23.7611 4.51889 23.6993 4.59161 23.6533 4.68445C23.6022 4.78718 23.5796 4.88052 23.5627 5.01054C23.554 5.0779 23.5573 5.1559 23.5496 5.21254C23.5408 5.27661 23.5459 5.34537 23.5459 5.41067C23.5459 5.87338 23.5096 6.45952 23.6744 6.85519C23.8963 7.38807 24.8569 7.13808 25.5049 7.68678C25.9463 8.06036 26.0467 8.7879 26.0467 9.41724C26.0467 10.4212 26.1187 11.5403 25.1749 11.92C24.9638 12.005 24.6941 12.0525 24.415 12.0658H24.0813C23.818 12.0533 23.5635 12.0116 23.3592 11.9433C22.9551 11.8083 22.7351 11.5454 22.5891 11.1537C22.4065 10.6637 22.4359 9.84524 22.4429 9.28219C22.4439 9.1952 22.4704 9.02222 22.4704 8.8659L22.4702 8.86598ZM26.8506 10.7104C26.8093 10.3707 26.8111 9.9746 26.8129 9.61883C26.8135 9.49301 26.7993 9.39481 26.7993 9.25589C26.7994 8.76308 26.7898 8.23186 26.7898 7.76346C26.7898 7.29506 26.7993 6.76392 26.7993 6.2712C26.7993 6.02369 26.8128 5.79266 26.8128 5.53179C26.8128 4.91523 26.8454 4.1961 27.3351 3.79539C27.6247 3.55827 28.1151 3.46123 28.5069 3.46123H35.068C35.6274 3.46123 36.2433 3.60865 36.5245 4.11563C36.6068 4.26387 36.6693 4.44691 36.7074 4.63177C36.7363 4.77168 36.7577 4.95753 36.7616 5.11542C36.7634 5.1841 36.7759 5.19811 36.776 5.27586C36.7762 5.39245 36.776 5.50953 36.7754 5.62603C36.7748 5.74129 36.789 5.83215 36.789 5.96193C36.789 6.43354 36.8025 6.86913 36.8025 7.34676L36.789 9.59212C36.7891 9.72379 36.775 9.80278 36.7755 9.92818C36.7769 10.2985 36.7713 10.5411 36.7047 10.906C36.6399 11.262 36.4747 11.5793 36.184 11.7836C35.9317 11.9611 35.5014 12.0659 35.068 12.0659H28.5069C27.5445 12.0659 26.9672 11.6675 26.8507 10.7104H26.8506ZM37.666 10.9332C37.5728 10.5356 37.5683 9.79766 37.5817 9.34947L37.608 8.99938C37.6122 8.93639 37.5873 8.8659 37.6493 8.8659H38.6979C38.6979 8.96797 38.6839 9.01274 38.6843 9.10764L38.6711 9.59203C38.6717 9.86643 38.6677 10.5212 38.7398 10.7333C38.7834 10.8619 38.8341 10.944 38.9422 11.015C39.1313 11.139 39.5308 11.1468 39.7292 11.0533C40.0708 10.8925 40.0559 10.3573 40.0559 9.94146C40.0559 9.52979 40.0726 8.87373 39.845 8.56595C39.7301 8.41094 39.5344 8.36914 39.3271 8.31736C39.1178 8.265 38.9239 8.21702 38.7191 8.15906C38.4277 8.07677 38.0665 7.89637 37.8937 7.64012C37.4896 7.04103 37.5551 6.16748 37.5551 5.42394C37.5551 5.01367 37.5968 4.50504 37.788 4.16444C37.8322 4.08554 37.8468 4.04258 37.9159 3.95634C38.0512 3.7874 38.2321 3.66537 38.4609 3.58696C38.6762 3.51309 38.9669 3.46106 39.2492 3.46106C39.8034 3.46106 40.3754 3.49742 40.7583 3.92839C41.2128 4.43974 41.145 5.38577 41.145 6.09632C41.145 6.27928 41.1315 6.41202 41.1315 6.59366H40.029C40.029 6.21884 40.0829 5.07246 40.004 4.80359C39.9725 4.69575 39.9143 4.59582 39.8302 4.53373L39.6645 4.44403C39.4157 4.35449 38.9291 4.37147 38.7784 4.71141C38.664 4.96998 38.6835 5.58266 38.684 5.93538C38.6842 6.01626 38.6975 6.03292 38.6984 6.10919C38.702 6.4023 38.7138 6.6602 38.8455 6.91687C39.0977 7.40843 40.4661 7.11565 40.9343 8.05459C41.0991 8.38472 41.1852 8.8335 41.1852 9.323C41.1852 9.84524 41.2062 10.3916 41.108 10.8861C41.0538 11.1595 40.9762 11.3255 40.8332 11.5391C40.5765 11.9222 39.9679 12.0658 39.4912 12.0658C38.5576 12.0658 37.8945 11.9067 37.6658 10.9332H37.666ZM42.2581 11.504C42.0726 11.2267 41.9743 10.832 41.9647 10.5067L41.9382 6.94325L41.9511 5.28906C41.9521 5.21427 41.9649 5.20339 41.9657 5.12886C41.9697 4.72287 42.0781 4.30032 42.3262 3.9969C42.3434 3.97604 42.3535 3.96796 42.3703 3.94702C42.5061 3.778 42.709 3.66628 42.912 3.58779C43.3338 3.42453 44.1702 3.42338 44.5601 3.56866C44.6862 3.61565 44.9076 3.70379 45.0069 3.79391C45.0938 3.87265 45.1495 3.91363 45.2218 4.02296C45.3216 4.17384 45.382 4.29685 45.4356 4.4813C45.5837 4.98985 45.5415 5.69174 45.5415 6.2576C45.5415 6.38844 45.5279 6.46487 45.5279 6.59366H44.3852L44.3987 5.20892C44.3987 4.90616 44.3811 4.641 44.1407 4.49886C44.0752 4.46011 43.9813 4.42976 43.8978 4.41896C43.4988 4.36727 43.1913 4.47709 43.1152 4.89338L43.094 5.19506C43.0909 5.30011 43.0943 5.41215 43.0943 5.5181C43.0945 5.64062 43.0802 5.71656 43.0807 5.82721L43.0675 6.78198C43.0675 7.44265 43.0465 8.3881 43.081 9.02717L43.0805 9.72676C43.0807 9.81341 43.0951 9.84705 43.0946 9.94121C43.091 10.5731 43.0279 11.1246 43.7666 11.1246C44.2562 11.1246 44.4388 10.8754 44.4388 10.3852V8.87934H45.5817C45.5817 9.3366 45.6121 10.2048 45.5572 10.6431C45.519 10.9477 45.4442 11.2243 45.3102 11.4314C45.2361 11.546 45.1721 11.6277 45.0675 11.7131C45.0119 11.7587 44.9797 11.7782 44.9176 11.8185C44.6892 11.9665 44.2943 12.0503 43.883 12.0658H43.6038C43.2016 12.0507 42.8162 11.9696 42.5885 11.8188C42.4416 11.7214 42.3555 11.6498 42.258 11.5039L42.2581 11.504ZM46.4153 11.9447V3.5821C46.4153 3.55118 46.4247 3.54178 46.4557 3.54178H47.5583V7.19876H48.7817V3.54178H49.9245V11.9851H48.7817V8.22048H47.5583V11.9851H46.4557C46.4247 11.9851 46.4153 11.9757 46.4153 11.9447ZM50.906 11.9851V3.54178H52.0086C52.0395 3.54178 52.0488 3.55118 52.0488 3.5821V11.9447C52.0488 11.9757 52.0395 11.9851 52.0086 11.9851H50.906ZM53.0169 11.9851V3.54178H54.1598V10.9633H56.042V11.9851H53.0169ZM57.2479 5.62174L57.4898 3.64492C57.4957 3.59034 57.4788 3.54178 57.5345 3.54178H59.4033C59.4051 3.62266 59.4314 3.75978 59.4411 3.84L59.5499 4.72609C59.5691 4.92974 59.595 5.12152 59.6225 5.32583C59.7012 5.91444 59.759 6.51871 59.8393 7.09891C59.8947 7.49946 59.9347 7.88483 59.9838 8.28545C60.0315 8.67428 60.085 9.0759 60.1292 9.47108C60.1516 9.66995 60.1741 9.8642 60.2022 10.0704C60.2829 10.6626 60.3396 11.2513 60.421 11.8414C60.4457 12.0198 60.4531 11.9859 60.2637 11.9853H59.2688C59.2552 11.8212 59.2223 11.6277 59.2151 11.4608C59.2079 11.2931 59.1801 11.0956 59.1634 10.9344L59.0672 9.87443H57.8437L57.7651 10.6697C57.7554 10.7618 57.7567 10.8394 57.7438 10.9308L57.6953 11.4605C57.686 11.6287 57.6558 11.8183 57.642 11.9852H56.4722L56.7278 9.8609C56.7668 9.50901 56.812 9.13914 56.8581 8.79466C56.9059 8.43798 56.9401 8.09788 56.9873 7.74062C57.0789 7.0459 57.1563 6.31581 57.248 5.62182L57.2479 5.62174ZM61.0838 11.9447V3.5821C61.0838 3.55118 61.0932 3.54178 61.1242 3.54178H62.5359C62.9122 3.54178 63.2621 3.56297 63.5626 3.64435C64.4192 3.87677 64.5824 4.67497 64.5795 5.45091C64.579 5.56147 64.5937 5.61515 64.5931 5.71961C64.5926 5.81369 64.593 5.90801 64.593 6.00208C64.593 6.79913 64.6679 7.85391 64.2243 8.41663C64.1344 8.5309 63.9393 8.71229 63.7997 8.74478C63.8049 8.80752 63.8373 8.89764 63.8551 8.95841C63.8738 9.02247 63.8914 9.08629 63.9119 9.15695C63.9826 9.40166 64.7076 11.9099 64.7139 11.9851H63.5039L62.8047 9.29604C62.7883 9.23057 62.7742 9.17286 62.7565 9.10228C62.7338 9.01225 62.7312 8.94645 62.6838 8.94645H62.2265V11.9851H61.1241C61.0932 11.9851 61.0838 11.9757 61.0838 11.9447L61.0838 11.9447ZM68.6036 0.955078H14.0629C13.1554 0.955078 12.4128 1.69746 12.4128 2.60507V12.922C12.4128 13.8295 13.1553 14.5721 14.0629 14.5721H68.6036C69.5111 14.5721 70.2537 13.8296 70.2537 12.922V2.60507C70.2537 1.69754 69.5112 0.955078 68.6036 0.955078Z" fill="white"/>
<path d="M14.8795 48.6578H18.4617C19.3802 48.6578 19.8394 49.1171 19.8394 50.0356V54.2241C19.8394 59.0004 17.4513 61.3885 12.675 61.3885H7.16391C2.38759 61.3885 -0.000488281 59.0003 -0.000488281 54.2241V24.464C-0.000488281 19.6876 2.38767 17.2996 7.16391 17.2996H12.675C17.4513 17.2996 19.8394 19.6877 19.8394 24.464V28.6525C19.8394 29.571 19.3802 30.0302 18.4617 30.0302H14.8795C13.961 30.0302 13.5018 29.571 13.5018 28.6525V27.3849C13.5018 25.805 13.2996 24.7855 12.8955 24.3263C12.4913 23.867 11.4993 23.6374 9.91947 23.6374C8.55995 23.6374 7.62316 23.8486 7.10875 24.2712C6.59435 24.6937 6.33719 25.7316 6.33719 27.3849V51.3031C6.33719 52.9564 6.59435 53.9945 7.10875 54.4169C7.62308 54.8394 8.55995 55.0506 9.91947 55.0506C10.6175 55.0506 11.1227 55.0323 11.435 54.9956C11.7473 54.9589 12.0964 54.8303 12.4821 54.6098C12.8679 54.3894 13.1343 54.0128 13.2812 53.48C13.4281 52.9473 13.5017 52.2216 13.5017 51.3031V50.0356C13.5017 49.1171 13.961 48.6578 14.8795 48.6578ZM22.0444 59.4597V18.6773C22.0444 17.7588 22.5036 17.2996 23.4221 17.2996H27.0043C27.9228 17.2996 28.3821 17.7588 28.3821 18.6773V53.3974C28.3821 54.0219 28.5015 54.4537 28.7403 54.6925C28.9792 54.9313 29.4108 55.0507 30.0354 55.0507H36.1528C37.0713 55.0507 37.5305 55.51 37.5305 56.4285V60.0107C37.5305 60.9292 37.0713 61.3885 36.1528 61.3885H23.9732C23.2384 61.3885 22.7332 61.2507 22.4576 60.9752C22.1821 60.6996 22.0444 60.1945 22.0444 59.4597ZM52.7416 50.752V18.6773C52.7416 17.7588 53.2009 17.2996 54.1194 17.2996H57.7016C58.6201 17.2996 59.0794 17.7588 59.0794 18.6773V54.2241C59.0794 59.0004 56.6912 61.3885 51.915 61.3885H46.3487C41.5724 61.3885 39.1843 59.0003 39.1843 54.2241V18.6773C39.1843 17.7588 39.6436 17.2996 40.5621 17.2996H44.1443C45.0627 17.2996 45.5221 17.7588 45.5221 18.6773V50.752C45.5221 52.4422 45.7792 53.5811 46.2936 54.1689C46.808 54.7568 47.6898 55.0507 48.939 55.0507H49.2696C50.5922 55.0507 51.5016 54.766 51.9976 54.1965C52.4935 53.6271 52.7416 52.479 52.7416 50.752ZM62.3866 59.4597V19.2285C62.3866 18.4937 62.5244 17.9884 62.7999 17.7129C63.0755 17.4374 63.5807 17.2996 64.3155 17.2996H74.5662C79.3425 17.2996 81.7306 19.6877 81.7306 24.464V34.1636C81.7306 35.0454 81.4183 36.1108 80.7936 37.36C80.6099 37.6907 80.6467 38.0031 80.9039 38.297C82.0796 39.5461 82.6675 41.0158 82.6675 42.7058V54.2241C82.6675 59.0004 80.2793 61.3885 75.5031 61.3885H64.3155C63.0296 61.3885 62.3866 60.7456 62.3866 59.4597ZM72.9128 41.6036H70.3777C69.7531 41.6036 69.3214 41.723 69.0825 41.9619C68.8438 42.2007 68.7243 42.6324 68.7243 43.257V53.3974C68.7243 54.022 68.8438 54.4538 69.0825 54.6926C69.3214 54.9314 69.753 55.0508 70.3777 55.0508H72.3066C73.7763 55.0508 74.8142 54.8304 75.4204 54.3895C76.0266 53.9486 76.3296 52.9198 76.3296 51.3032V45.3512C76.3296 43.8449 76.0633 42.8528 75.5306 42.3752C74.9978 41.8976 74.1253 41.6404 72.9128 41.6036ZM71.3697 23.6374H70.3777C69.7531 23.6374 69.3214 23.7568 69.0825 23.9956C68.8438 24.2344 68.7243 24.6661 68.7243 25.2908V33.6125C68.7243 34.2004 68.8438 34.6229 69.0825 34.8801C69.3214 35.1373 69.753 35.2658 70.3777 35.2658H71.3697C72.8394 35.2658 73.8773 35.0454 74.4834 34.6045C75.0898 34.1636 75.3928 33.1348 75.3928 31.5182V27.3848C75.3928 25.7682 75.0897 24.7395 74.4834 24.2986C73.8772 23.8577 72.8393 23.6374 71.3697 23.6374Z" fill="white"/>
</svg>

<svg width="83" height="62" fill="none" xmlns="http://www.w3.org/2000/svg"><path fill-rule="evenodd" clip-rule="evenodd" d="M18.339 8.795c.136-1.034.246-2.155.388-3.175.05-.356.085-.699.129-1.054l.097-.79c.018-.128.001-.234.062-.234h1.869l.145 1.186c.049.399.089.785.145 1.186.055.4.09.784.146 1.185.055.4.095.787.144 1.187l.438 3.555c.023.18.031.145-.158.145h-.995l-.178-1.852c-.01-.072-.024-.172-.024-.26h-1.223c-.014.167-.044.357-.053.525-.017.298-.07.74-.096 1.06-.014.168-.039.36-.053.527h-1.17l.062-.544c.119-.857.21-1.782.325-2.647Zm1.246-1.523c-.025.18-.027.347-.05.528l-.103 1.066h1.008l-.306-3.5a2.878 2.878 0 0 1-.017-.265c-.002-.172-.04-.361-.04-.537h-.256c-.055 0-.041.05-.04.107l-.028.416c-.04.517-.096 1.135-.12 1.641l-.048.544Zm8.33.478c0 .701.018 1.398.027 2.098 0 .086.014.15.014.255 0 .198.004.568.076.717.137.286.447.305.757.305h6.024c.17 0 .34-.01.468-.056a.462.462 0 0 0 .233-.17c.137-.188.115-.55.118-.783.001-.084.015-.14.014-.242-.001-.659.027-1.38.027-2.043 0-.187-.013-.324-.013-.511l-.014-1.546c0-.176-.013-.324-.013-.511 0-.513-.058-.86-.686-.86h-6.319c-.337 0-.559.129-.63.392a2.911 2.911 0 0 0-.042.468c0 .179-.014.317-.014.484.001.651-.027 1.345-.027 2.003Zm30.213-.737-.177 1.853h1.008l-.053-.538c-.025-.464-.112-1.002-.135-1.479-.002-.059-.011-.056-.013-.12a2.581 2.581 0 0 0-.02-.277l-.122-1.625a2.45 2.45 0 0 1-.02-.263h-.282c-.012.05-.026.21-.027.268l-.054.82c-.033.424-.061.945-.105 1.36Zm4.099-2.45v3.375h.363c.66 0 .848-.205.847-.82 0-.109.014-.175.014-.268V5.639c0-.091-.015-.15-.014-.255.002-.895-.452-.82-1.21-.82ZM22.47 8.867h1.049c.062 0 .026.08.027.161 0 .066.004.15-.001.215-.03.37-.004.786 0 1.157.006.469.21.732.698.72.57-.014.609-.313.659-.763.008-.078-.005-.159.005-.236.026-.185-.004-.416-.003-.595l-.016-.361c-.02-.195-.077-.459-.17-.583-.318-.425-1.518-.218-2.009-1.003-.364-.582-.293-1.5-.293-2.221 0-.583.107-1.11.38-1.422a.947.947 0 0 1 .243-.214c.267-.158.634-.24 1.006-.26h.345c.264.014.516.058.72.13.22.075.392.2.524.363.5.616.359 1.8.359 2.64H24.89c0-.289.014-.531.014-.82 0-.338.04-.931-.127-1.151-.19-.251-.656-.27-.918-.15a.425.425 0 0 0-.206.211.955.955 0 0 0-.09.327c-.009.067-.006.145-.013.202-.01.064-.004.132-.004.198 0 .462-.036 1.049.128 1.444.222.533 1.183.283 1.83.832.442.373.543 1.1.543 1.73 0 1.004.072 2.123-.872 2.503-.211.085-.48.133-.76.146h-.334a2.761 2.761 0 0 1-.722-.123c-.404-.135-.624-.398-.77-.79-.182-.49-.153-1.308-.146-1.87 0-.088.027-.26.027-.417Zm4.38 1.844a9.122 9.122 0 0 1-.037-1.091c0-.126-.014-.224-.014-.363 0-.493-.01-1.024-.01-1.493 0-.468.01-1 .01-1.492 0-.247.014-.478.014-.74 0-.616.032-1.335.522-1.736.29-.237.78-.334 1.172-.334h6.561c.56 0 1.175.148 1.457.655.082.148.144.33.182.516.03.14.05.326.055.483.001.07.014.083.014.16v.351c-.001.115.013.206.013.336 0 .472.014.907.014 1.385l-.014 2.245c0 .132-.014.21-.014.336a4.71 4.71 0 0 1-.07.978c-.065.356-.23.673-.521.878-.252.177-.683.282-1.116.282h-6.561c-.963 0-1.54-.399-1.656-1.356Zm10.816.223c-.093-.397-.098-1.135-.084-1.584l.026-.35c.004-.063-.02-.133.041-.133h1.049c0 .102-.014.147-.014.242l-.013.484c0 .274-.003.93.069 1.141.043.129.094.211.202.282.19.124.589.132.787.038.342-.16.327-.696.327-1.112 0-.411.017-1.067-.211-1.375-.115-.155-.31-.197-.518-.249-.21-.052-.403-.1-.608-.158-.291-.082-.653-.263-.825-.519-.404-.599-.339-1.473-.339-2.216 0-.41.042-.919.233-1.26.044-.078.059-.121.128-.208.135-.169.316-.29.545-.369.215-.074.506-.126.788-.126.554 0 1.126.036 1.51.467.454.512.386 1.458.386 2.168 0 .183-.014.316-.014.498H40.03c0-.375.054-1.522-.025-1.79a.51.51 0 0 0-.174-.27l-.166-.09c-.248-.09-.735-.073-.886.267-.114.259-.094.872-.094 1.224 0 .081.014.098.014.174.004.293.016.551.148.808.252.491 1.62.199 2.088 1.138.165.33.251.779.251 1.268 0 .522.021 1.069-.077 1.563-.054.274-.132.44-.275.653-.256.383-.865.527-1.342.527-.933 0-1.596-.16-1.825-1.133Zm4.592.571c-.185-.277-.284-.672-.293-.997l-.027-3.564.013-1.654c.001-.075.014-.086.015-.16.004-.406.112-.829.36-1.132.017-.021.027-.029.044-.05.136-.169.339-.28.542-.36.422-.162 1.258-.164 1.648-.018.126.047.348.135.447.225.087.079.143.12.215.229.1.15.16.274.214.458.148.509.105 1.21.105 1.777 0 .13-.013.207-.013.336h-1.143l.014-1.385c0-.303-.018-.568-.258-.71a.683.683 0 0 0-.243-.08c-.4-.052-.707.058-.783.474l-.021.302c-.003.105 0 .217 0 .323 0 .123-.014.199-.013.31l-.014.954c0 .66-.02 1.606.014 2.245v.7c0 .086.014.12.014.214-.004.632-.067 1.184.672 1.184.49 0 .672-.25.672-.74V8.88h1.143c0 .458.03 1.326-.025 1.764-.038.305-.113.581-.247.788a1.1 1.1 0 0 1-.242.282c-.056.046-.088.065-.15.106-.229.147-.624.231-1.035.247h-.28c-.401-.015-.787-.096-1.014-.247a1.017 1.017 0 0 1-.331-.315Zm4.157.44V3.583c0-.03.01-.04.04-.04h1.103v3.657h1.224V3.542h1.143v8.443h-1.143V8.22h-1.224v3.765h-1.102c-.031 0-.04-.01-.04-.04Zm4.491.041V3.542h1.103c.03 0 .04.01.04.04v8.363c0 .03-.01.04-.04.04h-1.103Zm2.11 0V3.542h1.144v7.421h1.882v1.022h-3.025Zm4.232-6.363.242-1.977c.006-.055-.011-.103.044-.103h1.87c.001.08.027.218.037.298l.109.886c.02.204.045.396.073.6.078.588.136 1.193.216 1.773.056.4.096.786.145 1.186.047.39.101.79.145 1.186.023.199.045.393.073.6.08.592.138 1.18.219 1.77.025.179.032.145-.157.144h-.995c-.014-.164-.047-.357-.054-.524-.007-.168-.035-.365-.052-.527l-.096-1.06h-1.223l-.079.796c-.01.092-.008.17-.021.26l-.049.53c-.009.169-.04.358-.053.525h-1.17l.256-2.124c.039-.352.084-.722.13-1.066.048-.357.082-.697.13-1.054.09-.695.168-1.425.26-2.12Zm3.836 6.323V3.582c0-.03.01-.04.04-.04h1.412c.376 0 .726.021 1.027.102.856.233 1.02 1.031 1.016 1.807 0 .11.015.164.014.269v.282c0 .797.075 1.852-.369 2.415-.09.114-.285.295-.424.328.005.063.037.153.055.213l.057.199c.07.245.796 2.753.802 2.828h-1.21l-.7-2.689-.047-.194c-.023-.09-.026-.156-.073-.156h-.457v3.04h-1.103c-.03 0-.04-.01-.04-.041Zm7.52-10.99H14.063c-.908 0-1.65.742-1.65 1.65v10.317c0 .907.742 1.65 1.65 1.65h54.54c.908 0 1.65-.742 1.65-1.65V2.605c0-.907-.742-1.65-1.65-1.65Z" fill="#fff"/><path d="M14.88 48.658h3.582c.918 0 1.377.46 1.377 1.378v4.188c0 4.776-2.388 7.165-7.164 7.165H7.164C2.388 61.389 0 59 0 54.224v-29.76C0 19.688 2.388 17.3 7.164 17.3h5.511c4.776 0 7.164 2.388 7.164 7.164v4.189c0 .918-.459 1.377-1.377 1.377H14.88c-.919 0-1.378-.459-1.378-1.378v-1.267c0-1.58-.202-2.6-.607-3.059-.404-.459-1.396-.689-2.976-.689-1.359 0-2.296.212-2.81.634-.515.423-.772 1.46-.772 3.114v23.918c0 1.653.257 2.692.772 3.114.514.422 1.451.634 2.81.634.698 0 1.204-.019 1.516-.055.312-.037.661-.166 1.047-.386.386-.22.652-.597.8-1.13.146-.533.22-1.258.22-2.177v-1.267c0-.919.459-1.378 1.377-1.378Zm7.164 10.802V18.677c0-.918.46-1.377 1.378-1.377h3.582c.919 0 1.378.459 1.378 1.377v34.72c0 .625.12 1.057.358 1.296.24.238.67.358 1.295.358h6.118c.918 0 1.378.459 1.378 1.377v3.583c0 .918-.46 1.377-1.378 1.377h-12.18c-.735 0-1.24-.137-1.515-.413-.276-.275-.414-.78-.414-1.515Zm30.698-8.708V18.677c0-.918.459-1.377 1.377-1.377h3.583c.918 0 1.377.459 1.377 1.377v35.547c0 4.776-2.388 7.165-7.164 7.165h-5.566c-4.777 0-7.165-2.389-7.165-7.165V18.677c0-.918.46-1.377 1.378-1.377h3.582c.919 0 1.378.459 1.378 1.377v32.075c0 1.69.257 2.83.772 3.417.514.588 1.396.882 2.645.882h.33c1.323 0 2.233-.285 2.729-.855.495-.569.744-1.717.744-3.444Zm9.645 8.708V19.228c0-.734.137-1.24.413-1.515.276-.276.78-.413 1.516-.413h10.25c4.776 0 7.165 2.388 7.165 7.164v9.7c0 .881-.313 1.947-.937 3.196-.184.33-.147.643.11.937 1.176 1.25 1.764 2.719 1.764 4.409v11.518c0 4.776-2.389 7.165-7.165 7.165H64.315c-1.285 0-1.928-.643-1.928-1.93Zm10.526-17.856h-2.535c-.625 0-1.057.119-1.296.358-.238.239-.358.67-.358 1.295v10.14c0 .625.12 1.057.358 1.296.24.238.671.358 1.296.358h1.929c1.47 0 2.507-.22 3.113-.662.607-.44.91-1.47.91-3.086v-5.952c0-1.506-.267-2.498-.8-2.976-.532-.477-1.405-.735-2.617-.771ZM71.37 23.637h-.992c-.625 0-1.057.12-1.296.359-.238.238-.358.67-.358 1.295v8.321c0 .588.12 1.01.358 1.268.24.257.671.386 1.296.386h.992c1.47 0 2.507-.22 3.113-.661.607-.441.91-1.47.91-3.087v-4.133c0-1.617-.303-2.646-.91-3.086-.606-.441-1.644-.662-3.113-.662Z" fill="#fff"/></svg>
